src/images/icons/photographer.svg

<svg width="68" height="68" viewBox="0 0 68 68" fill="none" xmlns="http://www.w3.org/2000/svg">
<g clip-path="url(#clip0_187_6)">
<path d="M54.1038 52.4595C53.1034 48.7183 44.5246 45.7034 33.945 45.7034C23.3654 45.7034 14.8826 48.732 13.8822 52.4595C13.4299 54.1314 12.9229 57.2834 12.498 60.3394C18.3497 65.1222 25.8459 68 33.9999 68C42.1538 68 49.6363 65.1222 55.5017 60.3394C55.0631 57.2697 54.5561 54.1177 54.1038 52.4595Z" fill="#CE8699"/>
<path d="M40.6876 44.374C38.9198 41.9621 36.5489 40.6465 34 40.6465C31.451 40.6465 29.0802 41.9758 27.3123 44.374C25.613 46.69 24.6812 49.7597 24.6812 53.0076C24.6812 56.2555 25.613 59.3252 27.3123 61.6412C29.0802 64.0532 31.451 65.3688 34 65.3688C36.5489 65.3688 38.9198 64.0395 40.6876 61.6412C42.3869 59.3252 43.3188 56.2555 43.3188 53.0076C43.3188 49.7597 42.3869 46.7037 40.6876 44.374ZM34 63.4639C29.9161 63.4639 26.586 58.7771 26.586 53.0213C26.586 47.2656 29.9161 42.5788 34 42.5788C38.0838 42.5788 41.4139 47.2656 41.4139 53.0213C41.4139 58.7771 38.0838 63.4639 34 63.4639Z" fill="#283030"/>
<path d="M55.4196 59.8186L46.6489 61.2849L47.3889 65.2454C50.3216 63.9847 53.0488 62.3265 55.4881 60.3257C55.4744 60.1612 55.447 59.9968 55.4196 59.8186Z" fill="#E2A379"/>
<path d="M12.5802 59.8186C12.5528 59.9968 12.5254 60.1612 12.5117 60.3394C14.9236 62.3128 17.596 63.9436 20.4875 65.2043L21.2276 61.2712L12.5802 59.8186Z" fill="#E2A379"/>
<path d="M54.1041 52.4594C53.4463 50.0064 49.5269 47.8548 43.9219 46.6763L46.3886 59.9145L55.2141 58.4481C54.8578 56.0362 54.4604 53.775 54.1041 52.4594Z" fill="#CE8699"/>
<path d="M13.8962 52.4594C13.5399 53.7887 13.1424 56.0499 12.7861 58.4481L21.4746 59.887L23.9413 46.6899C18.3911 47.8685 14.5403 50.0063 13.8962 52.4594Z" fill="#CE8699"/>
<path d="M12.7861 58.4482C12.7176 58.9005 12.6491 59.3664 12.5806 59.8324L21.2142 61.2713L21.4746 59.8872L12.7861 58.4482Z" fill="#C14D71"/>
<path d="M55.2141 58.4482L46.4023 59.9009L46.6627 61.285L55.4334 59.8187C55.3512 59.3664 55.2826 58.9005 55.2141 58.4482Z" fill="#C14D71"/>
<path d="M39.3308 38.6594H28.6689C30.3271 43.6751 28.806 45.9637 28.806 45.9637C28.806 45.9637 31.1083 49.8146 33.9587 49.8146C36.8092 49.8146 39.1937 45.9637 39.1937 45.9637C39.1937 45.9637 37.6726 43.6751 39.3308 38.6594Z" fill="#E2A379"/>
<path d="M44.7852 27.9291L30.7795 23.256C15.472 31.9855 20.6659 41.7703 21.9678 46.2104C24.599 55.1455 18.6514 56.3515 18.6514 56.3515L18.9392 56.2967C18.9392 56.2967 28.6554 57.0641 27.4905 47.8275C26.915 43.2366 28.2854 34.1097 44.7852 27.9291Z" fill="#3F1C0A"/>
<path d="M33.9999 8.44177C27.9701 8.44177 23.064 11.3471 23.064 24.0097C23.064 28.2991 23.8314 31.6566 24.9825 34.2467C27.5041 39.9476 31.8757 41.9347 33.9999 41.9347C36.124 41.9347 40.4819 39.9476 43.0172 34.2467C44.1684 31.6566 44.9358 28.2991 44.9358 24.0097C44.9358 11.3471 40.0297 8.44177 33.9999 8.44177Z" fill="#F4B382"/>
<path d="M23.2697 24.3934C22.2282 24.5716 21.4334 25.0238 22.0227 28.4636C22.6119 31.917 23.3383 32.0678 24.3935 31.8896L23.2697 24.3934Z" fill="#F4B382"/>
<path d="M44.7443 24.3934L43.6343 31.9033C44.6758 32.0815 45.4158 31.917 46.0051 28.4773C46.5807 25.0238 45.7858 24.5716 44.7443 24.3934Z" fill="#F4B382"/>
<path d="M33.9998 8.44177C26.1474 8.44177 22.6665 11.8815 22.6665 24.5442L23.9684 23.4615C30.2449 23.4615 35.6032 19.7751 39.4815 16.2943C41.126 20.8303 45.3332 24.5304 45.3332 24.5304C45.3332 11.8815 41.8523 8.44177 33.9998 8.44177Z" fill="#3F1C0A"/>
<path d="M35.4251 35.3294C35.0139 35.2746 33.9998 35.672 33.9998 35.672C33.9998 35.672 32.9583 35.2746 32.5472 35.3294C31.8894 35.4253 30.3408 35.9598 30.3408 36.1517C30.3408 36.1517 32.2868 37.4673 33.9998 37.4673C35.7128 37.4673 37.6588 36.1517 37.6588 36.1517C37.6588 36.1517 36.0966 35.4253 35.4251 35.3294Z" fill="#CC785E"/>
<path d="M34.8357 36.2338C34.5617 36.2201 34.2191 36.4668 33.9998 36.4668C33.7394 36.4668 33.342 36.2201 33.0405 36.2475C31.2453 36.3572 30.3545 36.1516 30.3545 36.1516C30.3545 36.1516 32.3005 38.0017 34.0135 38.0017C35.7265 38.0017 37.6725 36.1516 37.6725 36.1516C37.6725 36.1516 36.7132 36.3435 34.8357 36.2338Z" fill="#C16952"/>
<path d="M23.9547 25.0923C23.8998 24.7223 23.8861 24.3797 23.8998 24.1193C23.9135 23.7219 23.9684 23.4752 23.9684 23.4752L22.6802 23.9549C22.6802 24.1467 22.6802 24.3523 22.6802 24.5441C22.6802 24.5441 22.8035 24.503 23.0228 24.4208C23.2009 24.7223 23.4202 25.1882 23.6395 25.8597C23.6258 25.8734 24.1328 26.2435 23.9547 25.0923Z" fill="#3F1C0A"/>
<path d="M45.3196 23.9549L44.0451 23.1052C44.0451 23.1052 44.0999 23.7219 44.1136 24.1193C44.1273 24.3934 44.1136 24.7223 44.0588 25.0923C43.8807 26.2435 44.374 25.8735 44.374 25.8735C44.5796 25.1883 44.8125 24.736 44.977 24.4345C45.1963 24.5168 45.3196 24.5442 45.3196 24.5442C45.3333 24.3386 45.3333 24.1467 45.3196 23.9549Z" fill="#3F1C0A"/>
<path d="M27.3537 55.6526H25.7777C25.5722 55.6526 25.4077 55.9541 25.4077 56.3378C25.4077 56.7215 25.5722 57.023 25.7777 57.023H27.3537C27.5593 57.023 27.7237 56.7215 27.7237 56.3378C27.7237 55.9541 27.5593 55.6526 27.3537 55.6526Z" fill="#010101"/>
<path d="M42.5514 57.4478H25.4486C24.7908 57.4478 24.2427 57.9822 24.2427 58.6537V66.5747C27.3261 67.4929 30.6014 68 34 68C37.385 68 40.6603 67.5066 43.7437 66.5747V58.6537C43.7574 57.9959 43.2092 57.4478 42.5514 57.4478Z" fill="#202121"/>
<path d="M31.4237 56.3376H25.4623C24.7908 56.3376 24.2427 56.9954 24.2427 57.804V61.2711C24.2427 62.0797 24.7908 62.7375 25.4623 62.7375H31.4237C32.0952 62.7375 32.6433 62.0797 32.6433 61.2711V57.804C32.6433 56.9954 32.0952 56.3376 31.4237 56.3376Z" fill="#202121"/>
<path d="M33.9999 57.1052C30.6972 57.1052 28.0112 59.7912 28.0112 63.0939C28.0112 64.9988 28.902 66.6981 30.2861 67.7945C31.5058 67.9315 32.7392 68 33.9999 68C35.247 68 36.4941 67.9315 37.7001 67.7945C39.0842 66.6981 39.975 64.9988 39.975 63.0939C39.9887 59.7912 37.3026 57.1052 33.9999 57.1052Z" fill="#010101"/>
<path d="M34.0002 57.4067C30.862 57.4067 28.313 59.9557 28.313 63.094C28.313 65.0811 29.3408 66.8352 30.8894 67.8493C31.9172 67.9452 32.945 67.9863 34.0002 67.9863C35.0417 67.9863 36.0832 67.9315 37.1111 67.8493C38.6596 66.8352 39.6874 65.0811 39.6874 63.094C39.6874 59.9557 37.1385 57.4067 34.0002 57.4067Z" fill="#231F20"/>
<path d="M34 57.7083C31.0262 57.7083 28.6143 60.1202 28.6143 63.094C28.6143 65.2044 29.8339 67.0271 31.6018 67.9041C32.3966 67.959 33.1914 67.9864 34 67.9864C34.8085 67.9864 35.6034 67.959 36.3982 67.9041C38.1661 67.0271 39.3857 65.1907 39.3857 63.0803C39.3857 60.1202 36.9738 57.7083 34 57.7083Z" fill="#979797"/>
<path d="M33.9999 57.9548C31.1631 57.9548 28.8608 60.2571 28.8608 63.0939C28.8608 65.3551 30.3135 67.26 32.3417 67.9589C32.8899 67.9863 33.4517 68 33.9999 68C34.5618 68 35.1099 67.9863 35.6581 67.9589C37.6863 67.2737 39.139 65.3551 39.139 63.0939C39.139 60.2571 36.8367 57.9548 33.9999 57.9548Z" fill="#231F20"/>
<path d="M34.0272 58.3796C31.4235 58.3796 29.2993 60.4901 29.2993 63.1076C29.2993 65.7114 31.4098 67.8355 34.0272 67.8355C36.6447 67.8355 38.7552 65.7251 38.7552 63.1076C38.7552 60.4901 36.6447 58.3796 34.0272 58.3796Z" fill="#010101"/>
<path d="M34.0276 58.6125C31.5472 58.6125 29.5464 60.6134 29.5464 63.0938C29.5464 65.5743 31.5472 67.5751 34.0276 67.5751C36.5081 67.5751 38.5089 65.5743 38.5089 63.0938C38.5226 60.6134 36.5081 58.6125 34.0276 58.6125Z" fill="#231F20"/>
<path d="M34.0276 58.8594C31.6841 58.8594 29.793 60.7643 29.793 63.094C29.793 65.4374 31.6978 67.3422 34.0276 67.3422C36.371 67.3422 38.2621 65.4374 38.2621 63.094C38.2758 60.7505 36.371 58.8594 34.0276 58.8594Z" fill="#595A5C"/>
<path d="M34.0276 59.0376C31.7938 59.0376 29.9712 60.8465 29.9712 63.094C29.9712 65.3278 31.7801 67.1505 34.0276 67.1505C36.2614 67.1505 38.084 65.3415 38.084 63.094C38.084 60.8603 36.2751 59.0376 34.0276 59.0376Z" fill="#231F20"/>
<path d="M34.0273 59.5857C32.0813 59.5857 30.519 61.1617 30.519 63.094C30.519 65.0399 32.095 66.6022 34.0273 66.6022C35.9733 66.6022 37.5356 65.0262 37.5356 63.094C37.5493 61.148 35.9733 59.5857 34.0273 59.5857Z" fill="#A5B6B9"/>
<path d="M32.8487 60.2297C31.9168 60.2297 31.1631 60.9835 31.1631 61.9153C31.1631 62.8472 31.9168 63.601 32.8487 63.601C33.7806 63.601 34.5343 62.8472 34.5343 61.9153C34.5343 60.9835 33.7806 60.2297 32.8487 60.2297Z" fill="white"/>
<path d="M25.3253 57.0229C25.0786 57.0229 24.8867 57.2148 24.8867 57.4615V57.7904V57.8178L25.6816 57.0229H25.3253Z" fill="#66B9CC"/>
<path d="M28.2856 57.0229H27.71L25.2021 59.5308C25.2433 59.5445 25.2844 59.5582 25.3392 59.5582H27.4222L28.7378 58.2426V57.4615C28.7241 57.2285 28.5323 57.0229 28.2856 57.0229Z" fill="#66B9CC"/>
<path d="M25.6816 57.0229L24.8867 57.8178V58.1467V59.1197C24.8867 59.3115 25.0101 59.476 25.1882 59.5308L27.6961 57.0229H25.6816Z" fill="#D7E4F4"/>
<path d="M27.4082 59.5583H28.2853C28.5319 59.5583 28.7238 59.3664 28.7238 59.1197V58.2427L27.4082 59.5583Z" fill="#D7E4F4"/>
</g>
<defs>
<clipPath id="clip0_187_6">
<rect width="68" height="68" fill="white"/>
</clipPath>
</defs>
</svg>

<svg width="68" height="68" fill="none" xmlns="http://www.w3.org/2000/svg"><g clip-path="url(#a)"><path d="M54.104 52.46c-1-3.742-9.58-6.757-20.159-6.757-10.58 0-19.062 3.029-20.063 6.756-.452 1.672-.96 4.824-1.384 7.88A33.883 33.883 0 0 0 34 68c8.154 0 15.636-2.878 21.502-7.66-.439-3.07-.946-6.222-1.398-7.88z" fill="#CE8699"/><path d="M40.688 44.374c-1.768-2.412-4.14-3.727-6.688-3.727-2.549 0-4.92 1.329-6.688 3.727-1.699 2.316-2.63 5.386-2.63 8.634 0 3.247.931 6.317 2.63 8.633C29.08 64.053 31.451 65.37 34 65.37c2.549 0 4.92-1.33 6.688-3.728 1.699-2.316 2.63-5.386 2.63-8.633 0-3.248-.931-6.304-2.63-8.634zM34 63.464c-4.084 0-7.414-4.687-7.414-10.443 0-5.755 3.33-10.442 7.414-10.442s7.414 4.687 7.414 10.442c0 5.756-3.33 10.443-7.414 10.443z" fill="#283030"/><path d="m55.42 59.819-8.771 1.466.74 3.96a33.849 33.849 0 0 0 8.1-4.92c-.015-.164-.042-.328-.07-.506zM12.58 59.819c-.027.178-.055.342-.068.52a34.062 34.062 0 0 0 7.976 4.865l.74-3.933-8.648-1.452z" fill="#E2A379"/><path d="M54.104 52.46c-.658-2.454-4.577-4.605-10.182-5.784l2.467 13.238 8.825-1.466c-.356-2.412-.754-4.673-1.11-5.989zM13.896 52.46c-.356 1.329-.754 3.59-1.11 5.988l8.689 1.439L23.94 46.69c-5.55 1.178-9.4 3.316-10.045 5.77z" fill="#CE8699"/><path d="M12.786 58.448c-.068.453-.137.918-.205 1.384l8.633 1.44.26-1.385-8.688-1.439zM55.214 58.448l-8.812 1.453.26 1.384 8.771-1.466c-.082-.453-.15-.919-.219-1.37z" fill="#C14D71"/><path d="M39.33 38.66H28.67c1.658 5.015.137 7.304.137 7.304s2.302 3.85 5.153 3.85c2.85 0 5.235-3.85 5.235-3.85s-1.521-2.289.137-7.305z" fill="#E2A379"/><path d="M44.785 27.93 30.78 23.255c-15.308 8.73-10.114 18.514-8.812 22.954 2.631 8.935-3.317 10.142-3.317 10.142l.288-.055s9.716.767 8.552-8.47c-.576-4.59.794-13.717 17.294-19.898z" fill="#3F1C0A"/><path d="M34 8.442c-6.03 0-10.936 2.905-10.936 15.568 0 4.29.767 7.647 1.919 10.237 2.521 5.7 6.893 7.688 9.017 7.688 2.124 0 6.482-1.987 9.017-7.688 1.151-2.59 1.919-5.948 1.919-10.237C44.936 11.347 40.03 8.442 34 8.442z" fill="#F4B382"/><path d="M23.27 24.393c-1.042.179-1.837.63-1.247 4.07.589 3.454 1.315 3.605 2.37 3.427l-1.123-7.497zM44.744 24.393l-1.11 7.51c1.042.178 1.782.014 2.371-3.426.576-3.453-.22-3.905-1.26-4.084z" fill="#F4B382"/><path d="M34 8.442c-7.853 0-11.334 3.44-11.334 16.102l1.302-1.082c6.277 0 11.635-3.687 15.513-7.168 1.645 4.536 5.852 8.236 5.852 8.236 0-12.649-3.48-16.088-11.333-16.088z" fill="#3F1C0A"/><path d="M35.425 35.33c-.411-.055-1.425.342-1.425.342s-1.042-.397-1.453-.343c-.658.096-2.206.63-2.206.823 0 0 1.946 1.315 3.659 1.315 1.713 0 3.659-1.315 3.659-1.315s-1.562-.727-2.234-.823z" fill="#CC785E"/><path d="M34.836 36.234c-.274-.014-.617.233-.836.233-.26 0-.658-.247-.96-.22-1.795.11-2.685-.095-2.685-.095s1.945 1.85 3.659 1.85c1.712 0 3.658-1.85 3.658-1.85s-.959.191-2.836.082z" fill="#C16952"/><path d="M23.955 25.092c-.055-.37-.069-.712-.055-.973.014-.397.068-.644.068-.644l-1.288.48v.59s.123-.042.343-.124c.178.301.397.767.617 1.439-.014.013.493.384.315-.768zM45.32 23.955l-1.275-.85s.055.617.069 1.014c.013.274 0 .603-.055.973-.178 1.152.315.782.315.782a7.14 7.14 0 0 1 .603-1.44c.22.083.343.11.343.11a4.229 4.229 0 0 0 0-.59z" fill="#3F1C0A"/><path d="M27.354 55.653h-1.576c-.206 0-.37.301-.37.685 0 .383.164.685.37.685h1.576c.205 0 .37-.302.37-.685 0-.384-.165-.685-.37-.685z" fill="#010101"/><path d="M42.551 57.448H25.45c-.658 0-1.206.534-1.206 1.206v7.92A34.143 34.143 0 0 0 34 68c3.385 0 6.66-.493 9.744-1.425v-7.921a1.196 1.196 0 0 0-1.193-1.206z" fill="#202121"/><path d="M31.424 56.338h-5.962c-.671 0-1.22.657-1.22 1.466v3.467c0 .809.549 1.466 1.22 1.466h5.962c.671 0 1.22-.657 1.22-1.466v-3.467c0-.809-.549-1.466-1.22-1.466z" fill="#202121"/><path d="M34 57.105a5.995 5.995 0 0 0-5.989 5.989c0 1.905.891 3.604 2.275 4.7 1.22.138 2.453.206 3.714.206 1.247 0 2.494-.069 3.7-.206a5.986 5.986 0 0 0 2.275-4.7c.014-3.303-2.672-5.989-5.975-5.989z" fill="#010101"/><path d="M34 57.407a5.69 5.69 0 0 0-5.687 5.687 5.683 5.683 0 0 0 2.576 4.755c1.028.096 2.056.137 3.111.137a39.09 39.09 0 0 0 3.111-.137 5.683 5.683 0 0 0 2.576-4.755A5.69 5.69 0 0 0 34 57.407z" fill="#231F20"/><path d="M34 57.708a5.387 5.387 0 0 0-5.386 5.386c0 2.11 1.22 3.933 2.988 4.81a34.693 34.693 0 0 0 4.796 0 5.388 5.388 0 0 0 2.988-4.824c0-2.96-2.412-5.372-5.386-5.372z" fill="#979797"/><path d="M34 57.955a5.141 5.141 0 0 0-5.14 5.139 5.141 5.141 0 0 0 3.482 4.865 33.486 33.486 0 0 0 3.316 0A5.141 5.141 0 0 0 34 57.955z" fill="#231F20"/><path d="M34.027 58.38a4.729 4.729 0 1 0 4.728 4.728 4.72 4.72 0 0 0-4.728-4.728z" fill="#010101"/><path d="M34.028 58.612c-2.48 0-4.482 2.001-4.482 4.482 0 2.48 2.001 4.481 4.482 4.481 2.48 0 4.48-2 4.48-4.481.015-2.48-2-4.482-4.48-4.482z" fill="#231F20"/><path d="M34.028 58.86a4.237 4.237 0 0 0-4.235 4.234c0 2.343 1.905 4.248 4.235 4.248a4.24 4.24 0 0 0 4.234-4.248c.014-2.343-1.891-4.235-4.234-4.235z" fill="#595A5C"/><path d="M34.028 59.038a4.056 4.056 0 1 0-.001 8.111 4.056 4.056 0 0 0 0-8.111z" fill="#231F20"/><path d="M34.027 59.586a3.506 3.506 0 0 0-3.508 3.508 3.506 3.506 0 0 0 3.508 3.508 3.506 3.506 0 0 0 3.509-3.508c.013-1.946-1.563-3.508-3.509-3.508z" fill="#A5B6B9"/><path d="M32.849 60.23a1.684 1.684 0 1 0 1.686 1.686c0-.932-.754-1.686-1.686-1.686z" fill="#fff"/><path d="M25.325 57.023a.433.433 0 0 0-.438.438V57.819l.795-.795h-.357zM28.286 57.023h-.576l-2.508 2.508c.041.014.082.027.137.027h2.083l1.316-1.315v-.782a.463.463 0 0 0-.452-.438z" fill="#66B9CC"/><path d="m25.682 57.023-.795.795v1.302c0 .192.123.356.301.41l2.508-2.507h-2.014zM27.408 59.558h.877a.433.433 0 0 0 .439-.438v-.877l-1.316 1.315z" fill="#D7E4F4"/></g><defs><clipPath id="a"><path fill="#fff" d="M0 0h68v68H0z"/></clipPath></defs></svg>
